svg/aws-ec2-d3en.svg

<?xml version="1.0" encoding="UTF-8"?>
<svg xmlns="http://www.w3.org/2000/svg" xmlns:xlink="http://www.w3.org/1999/xlink" width="32" height="32" viewBox="0 0 32 32">
<path fill-rule="evenodd" fill="rgb(83.137255%, 35.686275%, 2.745098%)" fill-opacity="1" d="M 6 26 L 26 26 L 26 6 L 6 6 Z M 30.667969 8.667969 L 30.667969 7.332031 L 27.332031 7.332031 L 27.332031 5.332031 C 27.332031 4.964844 27.035156 4.667969 26.667969 4.667969 L 24.667969 4.667969 L 24.667969 1.332031 L 23.332031 1.332031 L 23.332031 4.667969 L 20.667969 4.667969 L 20.667969 1.332031 L 19.332031 1.332031 L 19.332031 4.667969 L 16.667969 4.667969 L 16.667969 1.332031 L 15.332031 1.332031 L 15.332031 4.667969 L 12.667969 4.667969 L 12.667969 1.332031 L 11.332031 1.332031 L 11.332031 4.667969 L 8.667969 4.667969 L 8.667969 1.332031 L 7.332031 1.332031 L 7.332031 4.667969 L 5.332031 4.667969 C 4.964844 4.667969 4.667969 4.964844 4.667969 5.332031 L 4.667969 7.332031 L 1.332031 7.332031 L 1.332031 8.667969 L 4.667969 8.667969 L 4.667969 11.332031 L 1.332031 11.332031 L 1.332031 12.667969 L 4.667969 12.667969 L 4.667969 15.332031 L 1.332031 15.332031 L 1.332031 16.667969 L 4.667969 16.667969 L 4.667969 19.332031 L 1.332031 19.332031 L 1.332031 20.667969 L 4.667969 20.667969 L 4.667969 23.332031 L 1.332031 23.332031 L 1.332031 24.667969 L 4.667969 24.667969 L 4.667969 26.667969 C 4.667969 27.035156 4.964844 27.332031 5.332031 27.332031 L 7.332031 27.332031 L 7.332031 30.667969 L 8.667969 30.667969 L 8.667969 27.332031 L 11.332031 27.332031 L 11.332031 30.667969 L 12.667969 30.667969 L 12.667969 27.332031 L 15.332031 27.332031 L 15.332031 30.667969 L 16.667969 30.667969 L 16.667969 27.332031 L 19.332031 27.332031 L 19.332031 30.667969 L 20.667969 30.667969 L 20.667969 27.332031 L 23.332031 27.332031 L 23.332031 30.667969 L 24.667969 30.667969 L 24.667969 27.332031 L 26.667969 27.332031 C 27.035156 27.332031 27.332031 27.035156 27.332031 26.667969 L 27.332031 24.667969 L 30.667969 24.667969 L 30.667969 23.332031 L 27.332031 23.332031 L 27.332031 20.667969 L 30.667969 20.667969 L 30.667969 19.332031 L 27.332031 19.332031 L 27.332031 16.667969 L 30.667969 16.667969 L 30.667969 15.332031 L 27.332031 15.332031 L 27.332031 12.667969 L 30.667969 12.667969 L 30.667969 11.332031 L 27.332031 11.332031 L 27.332031 8.667969 Z M 23.171875 18.484375 L 23.171875 16.015625 C 23.171875 15.773438 23.125 15.601562 23.023438 15.488281 C 22.925781 15.378906 22.769531 15.324219 22.554688 15.324219 C 22.234375 15.324219 21.902344 15.433594 21.566406 15.648438 L 21.566406 18.484375 L 20.699219 18.484375 L 20.699219 14.753906 L 21.417969 14.753906 L 21.507812 15.164062 C 21.964844 14.816406 22.445312 14.644531 22.945312 14.644531 C 23.300781 14.644531 23.574219 14.738281 23.757812 14.925781 C 23.945312 15.113281 24.039062 15.386719 24.039062 15.742188 L 24.039062 18.484375 Z M 18.511719 15.273438 C 18.261719 15.273438 18.054688 15.363281 17.898438 15.539062 C 17.742188 15.714844 17.652344 15.953125 17.628906 16.25 L 19.234375 16.25 L 19.234375 16.191406 C 19.234375 15.894531 19.171875 15.664062 19.050781 15.507812 C 18.925781 15.351562 18.746094 15.273438 18.511719 15.273438 M 17.628906 16.828125 C 17.640625 17.199219 17.742188 17.472656 17.929688 17.648438 C 18.113281 17.820312 18.402344 17.90625 18.789062 17.90625 C 19.136719 17.90625 19.515625 17.839844 19.921875 17.703125 L 19.921875 18.308594 C 19.734375 18.40625 19.539062 18.476562 19.332031 18.519531 C 19.105469 18.570312 18.871094 18.597656 18.625 18.597656 C 18.007812 18.597656 17.542969 18.429688 17.226562 18.097656 C 16.90625 17.765625 16.746094 17.28125 16.746094 16.644531 C 16.746094 16.011719 16.902344 15.523438 17.214844 15.171875 C 17.523438 14.820312 17.957031 14.644531 18.515625 14.644531 C 18.992188 14.644531 19.363281 14.773438 19.617188 15.035156 C 19.875 15.296875 20.003906 15.667969 20.003906 16.148438 C 20.003906 16.398438 19.980469 16.628906 19.941406 16.828125 Z M 14.292969 15.566406 C 14.359375 15.558594 14.425781 15.558594 14.492188 15.558594 C 14.78125 15.558594 15.039062 15.621094 15.269531 15.738281 C 15.5 15.859375 15.683594 16.027344 15.824219 16.25 C 15.960938 16.46875 16.027344 16.71875 16.027344 17.003906 C 16.027344 17.3125 15.949219 17.585938 15.792969 17.824219 C 15.636719 18.0625 15.414062 18.253906 15.121094 18.390625 C 14.796875 18.535156 14.449219 18.605469 14.09375 18.597656 C 13.625 18.597656 13.164062 18.496094 12.714844 18.300781 L 12.714844 17.613281 C 13.25 17.792969 13.699219 17.882812 14.0625 17.882812 C 14.40625 17.882812 14.675781 17.808594 14.863281 17.652344 C 15.046875 17.5 15.140625 17.28125 15.140625 16.996094 C 15.140625 16.460938 14.800781 16.191406 14.125 16.191406 C 13.90625 16.191406 13.671875 16.203125 13.417969 16.234375 L 13.417969 15.671875 L 14.863281 14.101562 L 12.789062 14.101562 L 12.789062 13.402344 L 15.816406 13.402344 L 15.816406 14.070312 Z M 8.855469 14.109375 L 8.855469 17.78125 L 9.597656 17.78125 C 10.609375 17.78125 11.117188 17.195312 11.117188 16.023438 L 11.117188 15.859375 C 11.117188 14.691406 10.609375 14.109375 9.597656 14.109375 Z M 7.960938 18.484375 L 7.960938 13.402344 L 9.699219 13.402344 C 10.453125 13.402344 11.03125 13.621094 11.429688 14.058594 C 11.824219 14.492188 12.023438 15.117188 12.023438 15.933594 C 12.023438 16.753906 11.824219 17.386719 11.421875 17.824219 C 11.015625 18.269531 10.441406 18.488281 9.691406 18.484375 Z M 7.960938 18.484375 "/>
</svg>

<svg role="img" viewBox="0 0 32 32" xmlns="http://www.w3.org/2000/svg"><path d="M6 26h20V6H6ZM30.668 8.668V7.332h-3.336v-2a.664.664 0 0 0-.664-.664h-2V1.332h-1.336v3.336h-2.664V1.332h-1.336v3.336h-2.664V1.332h-1.336v3.336h-2.664V1.332h-1.336v3.336H8.668V1.332H7.332v3.336h-2a.664.664 0 0 0-.664.664v2H1.332v1.336h3.336v2.664H1.332v1.336h3.336v2.664H1.332v1.336h3.336v2.664H1.332v1.336h3.336v2.664H1.332v1.336h3.336v2c0 .367.297.664.664.664h2v3.336h1.336v-3.336h2.664v3.336h1.336v-3.336h2.664v3.336h1.336v-3.336h2.664v3.336h1.336v-3.336h2.664v3.336h1.336v-3.336h2a.664.664 0 0 0 .664-.664v-2h3.336v-1.336h-3.336v-2.664h3.336v-1.336h-3.336v-2.664h3.336v-1.336h-3.336v-2.664h3.336v-1.336h-3.336V8.668Zm-7.496 9.816v-2.468c0-.243-.047-.414-.149-.528q-.145-.164-.468-.164c-.32 0-.653.11-.989.324v2.836H20.7v-3.73h.719l.09.41q.686-.521 1.437-.52c.356 0 .63.094.813.282q.28.281.281.816v2.742Zm-4.66-3.21q-.377.001-.614.265-.234.265-.27.711h1.606v-.059c0-.296-.062-.527-.183-.683q-.187-.235-.54-.235m-.883 1.554q.019.557.3.82.28.258.86.258.526.001 1.133-.203v.606q-.248.135-.59.21-.338.078-.707.079-.925-.001-1.398-.5-.48-.498-.48-1.453 0-.946.468-1.473.462-.527 1.3-.527c.477 0 .848.128 1.102.39q.387.393.387 1.113 0 .38-.063.68Zm-3.336-1.262q.1-.007.2-.007.431.002.777.18.344.181.554.511.204.33.203.754 0 .462-.234.82-.233.362-.672.567a2.4 2.4 0 0 1-1.027.207c-.469 0-.93-.102-1.38-.297v-.688q.804.27 1.348.27c.344 0 .614-.074.801-.23q.277-.23.278-.657-.001-.804-1.016-.805-.327.001-.707.043v-.562l1.445-1.57H12.79v-.7h3.027v.668ZM8.855 14.11v3.672h.743q1.518 0 1.52-1.758v-.164q-.002-1.751-1.52-1.75Zm-.894 4.375v-5.082h1.738q1.132 0 1.73.657.593.65.594 1.875c0 .82-.199 1.453-.601 1.89q-.607.662-1.73.66Zm0 0" fill="rgb(83.137256%, 35.686275%, 2.745098%)" fill-rule="evenodd"/></svg>
